dist/img/svg/ic_pin-parking.svg

<svg width="53" height="58" viewBox="0 0 53 58" fill="none" xmlns="http://www.w3.org/2000/svg">
<g filter="url(#filter0_d)">
<path d="M48.4697 22.2349C48.4697 34.5148 38.5148 44.4697 26.2349 44.4697C13.9549 44.4697 4 34.5148 4 22.2349C4 9.95489 13.9549 0 26.2349 0C38.5148 0 48.4697 9.95489 48.4697 22.2349Z" fill="#E2243C"/>
<path d="M19.9459 43.5803L26.2349 37.2914L32.5239 43.5803L26.2349 49.8693L19.9459 43.5803Z" fill="#E2243C"/>
</g>
<path d="M28.2128 14.0758H22.3453C21.8048 14.0758 21.3674 14.5132 21.3674 15.0537V29.7224H23.3232V23.8549H28.2128C30.9087 23.8549 33.1023 21.6613 33.1023 18.9654C33.1023 16.2694 30.9087 14.0758 28.2128 14.0758ZM28.2128 21.8991H23.3232V16.0317H28.2128C29.8305 16.0317 31.1465 17.3477 31.1465 18.9655C31.1465 20.5832 29.8306 21.8991 28.2128 21.8991Z" fill="white"/>
<defs>
<filter id="filter0_d" x="0" y="0" width="52.4697" height="57.8693" filterUnits="userSpaceOnUse" color-interpolation-filters="sRGB">
<feFlood flood-opacity="0" result="BackgroundImageFix"/>
<feColorMatrix in="SourceAlpha" type="matrix" values="0 0 0 0 0 0 0 0 0 0 0 0 0 0 0 0 0 0 127 0"/>
<feOffset dy="4"/>
<feGaussianBlur stdDeviation="2"/>
<feColorMatrix type="matrix" values="0 0 0 0 0 0 0 0 0 0 0 0 0 0 0 0 0 0 0.25 0"/>
<feBlend mode="normal" in2="BackgroundImageFix" result="effect1_dropShadow"/>
<feBlend mode="normal" in="SourceGraphic" in2="effect1_dropShadow" result="shape"/>
</filter>
</defs>
</svg>

<svg width="53" height="58" viewBox="0 0 53 58" fill="none" xmlns="http://www.w3.org/2000/svg"><g filter="url(#filter0_d)" fill="#E2243C"><path d="M48.47 22.235c0 12.28-9.955 22.235-22.235 22.235S4 34.515 4 22.235 13.955 0 26.235 0 48.47 9.955 48.47 22.235z"/><path d="M19.946 43.58l6.289-6.289 6.289 6.29-6.29 6.288-6.288-6.289z"/></g><path d="M28.213 14.076h-5.868a.977.977 0 00-.978.978v14.668h1.956v-5.867h4.89a4.895 4.895 0 004.89-4.89 4.895 4.895 0 00-4.89-4.89zm0 7.823h-4.89v-5.867h4.89a2.937 2.937 0 012.933 2.933 2.937 2.937 0 01-2.933 2.934z" fill="#fff"/><defs><filter id="filter0_d" x="0" y="0" width="52.47" height="57.869" filterUnits="userSpaceOnUse" color-interpolation-filters="sRGB"><feFlood flood-opacity="0" result="BackgroundImageFix"/><feColorMatrix in="SourceAlpha" values="0 0 0 0 0 0 0 0 0 0 0 0 0 0 0 0 0 0 127 0"/><feOffset dy="4"/><feGaussianBlur stdDeviation="2"/><feColorMatrix values="0 0 0 0 0 0 0 0 0 0 0 0 0 0 0 0 0 0 0.25 0"/><feBlend in2="BackgroundImageFix" result="effect1_dropShadow"/><feBlend in="SourceGraphic" in2="effect1_dropShadow" result="shape"/></filter></defs></svg>
